;FLAVOR:UltiGCode
;TIME:32219
;MATERIAL:61463
;MATERIAL2:0
;NOZZLE_DIAMETER:0.4
;MINX:29.403
;MINY:7.559
;MINZ:0.27
;MAXX:196.696
;MAXY:154.553
;MAXZ:49.92
;Generated with Cura_SteamEngine 4.1.0
M82 ;absolute extrusion mode

G92 E0
G92 E0
G10
;LAYER_COUNT:332
;LAYER:0
M107
G0 F4500 X68.24 Y11.675 Z0.27
;TYPE:SKIRT
G11
G1 F1800 X68.329 Y11.519 E0.01697
G1 X68.758 Y10.851 E0.092
G1 X69.252 Y10.23 E0.16698
G1 X69.805 Y9.661 E0.24196
G1 X70.414 Y9.152 E0.31697
G1 X71.07 Y8.706 E0.39193
G1 X71.768 Y8.328 E0.46694
G1 X72.5 Y8.023 E0.54188
G1 X73.259 Y7.792 E0.61686
G1 X74.038 Y7.64 E0.69186
G1 X75.162 Y7.559 E0.79835
G1 X150.937 Y7.559 E7.95909
G1 X151.729 Y7.599 E8.03403
G1 X152.514 Y7.718 E8.10906
G1 X153.282 Y7.916 E8.18401
G1 X154.027 Y8.191 E8.25906
G1 X154.74 Y8.538 E8.33399
G1 X155.415 Y8.956 E8.40902
G1 X156.044 Y9.439 E8.48396
G1 X156.621 Y9.984 E8.55897
G1 X157.141 Y10.583 E8.63392
G1 X157.757 Y11.497 E8.73808
G1 X195.536 Y76.934 E15.87847
G1 X195.639 Y77.112 E15.8979
G1 X196.001 Y77.818 E15.97288
G1 X196.291 Y78.557 E16.0479
G1 X196.504 Y79.321 E16.12285
G1 X196.64 Y80.103 E16.19786
G1 X196.696 Y80.894 E16.27279
G1 X196.673 Y81.687 E16.34776
G1 X196.569 Y82.474 E16.42278
G1 X196.387 Y83.246 E16.49773
G1 X196.129 Y83.996 E16.57269
G1 X195.643 Y84.993 E16.6775
G1 X157.859 Y150.437 E23.81869
G1 X157.77 Y150.593 E23.83566
G1 X157.341 Y151.261 E23.91069
G1 X156.847 Y151.882 E23.98567
G1 X156.294 Y152.451 E24.06066
G1 X155.685 Y152.96 E24.13566
G1 X155.029 Y153.406 E24.21062
G1 X154.331 Y153.784 E24.28564
G1 X153.599 Y154.089 E24.36057
G1 X152.84 Y154.32 E24.43555
G1 X152.061 Y154.472 E24.51055
G1 X150.937 Y154.553 E24.61705
G1 X75.162 Y154.553 E31.77778
G1 X74.37 Y154.513 E31.85272
G1 X73.585 Y154.394 E31.92775
G1 X72.817 Y154.196 E32.0027
G1 X72.072 Y153.921 E32.07775
G1 X71.359 Y153.574 E32.15268
G1 X70.684 Y153.156 E32.22771
G1 X70.055 Y152.673 E32.30265
G1 X69.478 Y152.128 E32.37766
G1 X68.958 Y151.529 E32.45262
G1 X68.342 Y150.615 E32.55677
G1 X30.559 Y85.171 E39.69792
G1 X30.46 Y85 E39.71659
G1 X30.098 Y84.294 E39.79157
G1 X29.808 Y83.555 E39.86659
G1 X29.595 Y82.791 E39.94154
G1 X29.459 Y82.009 E40.01655
G1 X29.403 Y81.218 E40.09148
G1 X29.426 Y80.425 E40.16645
G1 X29.53 Y79.638 E40.24147
G1 X29.712 Y78.866 E40.31643
G1 X29.97 Y78.116 E40.39138
G1 X30.456 Y77.119 E40.49619
G1 X68.24 Y11.675 E47.63738
G0 F4500 X68.543 Y11.85
G1 F1800 X68.633 Y11.693 E47.65448
G1 X69.053 Y11.04 E47.72785
G1 X69.538 Y10.435 E47.80113
G1 X70.082 Y9.883 E47.87437
G1 X70.68 Y9.389 E47.94767
G1 X71.326 Y8.96 E48.02095
G1 X72.013 Y8.599 E48.09429
G1 X72.734 Y8.312 E48.16762
G1 X73.48 Y8.099 E48.24094
G1 X74.243 Y7.965 E48.31414
G1 X75.162 Y7.909 E48.40115
G1 X150.937 Y7.909 E55.56189
G1 X151.712 Y7.949 E55.63522
G1 X152.478 Y8.068 E55.70848
G1 X153.228 Y8.266 E55.78178
G1 X153.954 Y8.54 E55.85511
G1 X154.647 Y8.887 E55.92835
G1 X155.301 Y9.304 E56.00165
G1 X155.909 Y9.786 E56.07497
G1 X156.464 Y10.328 E56.14828
G1 X156.961 Y10.924 E56.22161
G1 X157.454 Y11.672 E56.30627
G1 X195.233 Y77.109 E63.44665
G1 X195.336 Y77.287 E63.46609
G1 X195.69 Y77.978 E63.53946
G1 X195.97 Y78.701 E63.61273
G1 X196.174 Y79.449 E63.68599
G1 X196.301 Y80.214 E63.75928
G1 X196.348 Y80.988 E63.83255
G1 X196.315 Y81.763 E63.90586
G1 X196.202 Y82.531 E63.97922
G1 X196.011 Y83.283 E64.05254
G1 X195.744 Y84.011 E64.12581
G1 X195.34 Y84.818 E64.2111
G1 X157.556 Y150.262 E71.35229
G1 X157.466 Y150.419 E71.36939
G1 X157.046 Y151.072 E71.44276
G1 X156.561 Y151.677 E71.51604
G1 X156.017 Y152.229 E71.58927
G1 X155.419 Y152.723 E71.66257
G1 X154.773 Y153.152 E71.73586
G1 X154.086 Y153.513 E71.80919
G1 X153.365 Y153.8 E71.88253
G1 X152.619 Y154.013 E71.95584
G1 X151.856 Y154.147 E72.02905
G1 X150.937 Y154.203 E72.11606
G1 X75.162 Y154.203 E79.27679
G1 X74.387 Y154.163 E79.35013
G1 X73.621 Y154.044 E79.42338
G1 X72.871 Y153.846 E79.49669
G1 X72.145 Y153.572 E79.57002
G1 X71.452 Y153.225 E79.64326
G1 X70.798 Y152.808 E79.71655
G1 X70.19 Y152.326 E79.78988
G1 X69.635 Y151.784 E79.86318
G1 X69.138 Y151.188 E79.93652
G1 X68.645 Y150.44 E80.02118
G1 X30.862 Y84.996 E87.16232
G1 X30.763 Y84.825 E87.18099
G1 X30.409 Y84.134 E87.25436
G1 X30.129 Y83.411 E87.32763
G1 X29.925 Y82.663 E87.4009
G1 X29.798 Y81.898 E87.47418
G1 X29.751 Y81.124 E87.54746
G1 X29.784 Y80.349 E87.62076
G1 X29.897 Y79.581 E87.69412
G1 X30.088 Y78.829 E87.76744
G1 X30.355 Y78.101 E87.84072
G1 X30.759 Y77.294 E87.926
G1 X68.543 Y11.85 E95.06719
G0 F4500 X68.846 Y12.025
G1 F1800 X68.937 Y11.867 E95.08442
G1 X69.347 Y11.23 E95.15601
G1 X69.823 Y10.641 E95.22758
G1 X70.358 Y10.105 E95.29914
G1 X70.946 Y9.628 E95.37069
G1 X71.582 Y9.216 E95.4423
G1 X72.257 Y8.873 E95.51385
G1 X72.965 Y8.604 E95.58543
G1 X73.697 Y8.41 E95.65699
G1 X74.446 Y8.295 E95.7286
G1 X75.162 Y8.259 E95.79635
G1 X150.937 Y8.259 E102.95708
G1 X151.693 Y8.299 E103.02863
G1 X152.441 Y8.418 E103.1002
G1 X153.172 Y8.616 E103.17177
G1 X153.879 Y8.89 E103.24342
G1 X154.552 Y9.236 E103.31493
G1 X155.185 Y9.652 E103.38651
G1 X155.771 Y10.132 E103.4581
G1 X156.303 Y10.671 E103.52966
G1 X156.775 Y11.263 E103.60121
G1 X157.151 Y11.847 E103.66685
G1 X194.93 Y77.284 E110.80723
G1 X195.033 Y77.462 E110.82667
G1 X195.377 Y78.137 E110.89826
G1 X195.649 Y78.844 E110.96985
G1 X195.844 Y79.576 E111.04143
G1 X195.961 Y80.324 E111.11298
G1 X195.998 Y81.081 E111.1846
G1 X195.955 Y81.837 E111.25616
G1 X195.833 Y82.584 E111.32768
G1 X195.633 Y83.315 E111.3993
G1 X195.357 Y84.02 E111.47085
G1 X195.037 Y84.643 E111.53703
G1 X157.253 Y150.087 E118.67823
G1 X157.162 Y150.245 E118.69546
G1 X156.752 Y150.882 E118.76704
G1 X156.276 Y151.471 E118.83861
G1 X155.741 Y152.007 E118.91017
G1 X155.153 Y152.484 E118.98172
G1 X154.517 Y152.896 E119.05334
G1 X153.842 Y153.239 E119.12489
G1 X153.134 Y153.508 E119.19646
G1 X152.402 Y153.702 E119.26802
G1 X151.653 Y153.817 E119.33963
G1 X150.937 Y153.853 E119.40738
G1 X75.162 Y153.853 E126.56812
G1 X74.406 Y153.813 E126.63966
G1 X73.658 Y153.694 E126.71123
G1 X72.927 Y153.496 E126.7828
G1 X72.22 Y153.222 E126.85445
G1 X71.547 Y152.876 E126.92597
G1 X70.914 Y152.46 E126.99755
G1 X70.328 Y151.98 E127.06913
G1 X69.796 Y151.441 E127.1407
G1 X69.324 Y150.849 E127.21225
G1 X68.948 Y150.265 E127.27788
G1 X31.165 Y84.821 E134.41903
G1 X31.066 Y84.65 E134.4377
G1 X30.722 Y83.975 E134.50929
G1 X30.45 Y83.268 E134.58088
G1 X30.255 Y82.536 E134.65246
G1 X30.138 Y81.788 E134.72401
G1 X30.101 Y81.031 E134.79563
G1 X30.144 Y80.275 E134.86719
G1 X30.266 Y79.528 E134.93872
G1 X30.466 Y78.797 E135.01033
G1 X30.742 Y78.092 E135.08188
G1 X31.062 Y77.469 E135.14807
G1 X68.846 Y12.025 E142.28926
G0 F4500 X69.149 Y12.2
G1 F1800 X69.24 Y12.041 E142.30657
G1 X69.642 Y11.421 E142.3764
G1 X70.108 Y10.848 E142.44619
G1 X70.633 Y10.328 E142.51602
G1 X71.211 Y9.869 E142.58577
G1 X71.836 Y9.474 E142.65564
G1 X72.499 Y9.15 E142.72538
G1 X73.194 Y8.899 E142.7952
G1 X73.912 Y8.724 E142.86504
G1 X74.644 Y8.629 E142.9348
G1 X75.162 Y8.609 E142.98378
G1 X150.937 Y8.609 E150.14452
G1 X151.675 Y8.649 E150.21436
G1 X152.403 Y8.768 E150.28407
G1 X153.115 Y8.966 E150.35391
G1 X153.801 Y9.239 E150.42368
G1 X154.454 Y9.585 E150.49352
G1 X155.066 Y9.999 E150.56334
G1 X155.629 Y10.477 E150.63313
G1 X156.137 Y11.013 E150.70292
G1 X156.584 Y11.601 E150.77272
G1 X156.848 Y12.022 E150.81968
G1 X194.631 Y77.466 E157.96082
G1 X194.73 Y77.638 E157.97958
G1 X195.065 Y78.296 E158.04935
G1 X195.327 Y78.987 E158.11919
G1 X195.512 Y79.702 E158.18898
G1 X195.619 Y80.433 E158.2588
G1 X195.647 Y81.171 E158.32859
G1 X195.595 Y81.908 E158.39841
G1 X195.463 Y82.634 E158.46814
G1 X195.254 Y83.343 E158.53799
G1 X194.969 Y84.024 E158.60776
G1 X194.734 Y84.468 E158.65523
G1 X156.95 Y149.912 E165.79642
G1 X156.859 Y150.071 E165.81373
G1 X156.457 Y150.691 E165.88356
G1 X155.991 Y151.264 E165.95335
G1 X155.466 Y151.784 E166.02318
G1 X154.888 Y152.243 E166.09293
G1 X154.263 Y152.638 E166.1628
G1 X153.6 Y152.962 E166.23254
G1 X152.905 Y153.213 E166.30237
G1 X152.187 Y153.388 E166.3722
G1 X151.455 Y153.483 E166.44196
G1 X150.937 Y153.503 E166.49095
G1 X75.162 Y153.503 E173.65168
G1 X74.424 Y153.463 E173.72153
G1 X73.696 Y153.344 E173.79124
G1 X72.984 Y153.146 E173.86107
G1 X72.298 Y152.873 E173.93084
G1 X71.645 Y152.527 E174.00068
G1 X71.033 Y152.113 E174.0705
G1 X70.47 Y151.635 E174.1403
G1 X69.962 Y151.099 E174.21008
G1 X69.515 Y150.511 E174.27988
G1 X69.251 Y150.09 E174.32684
G1 X31.468 Y84.646 E181.46799
G1 X31.369 Y84.474 E181.48674
G1 X31.034 Y83.816 E181.55652
G1 X30.772 Y83.125 E181.62635
G1 X30.587 Y82.41 E181.69615
G1 X30.48 Y81.679 E181.76596
G1 X30.452 Y80.941 E181.83575
G1 X30.504 Y80.204 E181.90557
G1 X30.636 Y79.478 E181.9753
G1 X30.845 Y78.769 E182.04515
G1 X31.13 Y78.088 E182.11492
G1 X31.365 Y77.644 E182.16239
G1 X69.149 Y12.2 E189.30358
G0 F4500 X69.452 Y12.375
G1 F1800 X69.544 Y12.215 E189.32102
G1 X69.936 Y11.611 E189.38907
G1 X70.392 Y11.055 E189.45702
G1 X70.907 Y10.553 E189.52498
G1 X71.475 Y10.111 E189.593
G1 X72.088 Y9.735 E189.66095
G1 X72.74 Y9.429 E189.72902
G1 X73.421 Y9.198 E189.79697
G1 X74.123 Y9.043 E189.86491
G1 X75.162 Y8.959 E189.96342
G1 X150.937 Y8.959 E197.12415
G1 X151.655 Y8.999 E197.19211
G1 X152.365 Y9.118 E197.26014
G1 X153.057 Y9.316 E197.32816
G1 X153.722 Y9.589 E197.39609
G1 X154.354 Y9.934 E197.46413
G1 X154.943 Y10.347 E197.53211
G1 X155.482 Y10.823 E197.60007
G1 X155.966 Y11.355 E197.66803
G1 X156.545 Y12.197 E197.7646
G1 X194.328 Y77.641 E204.90575
G1 X194.427 Y77.813 E204.9245
G1 X194.753 Y78.455 E204.99254
G1 X195.005 Y79.129 E205.06054
G1 X195.18 Y79.826 E205.12845
G1 X195.277 Y80.539 E205.19645
G1 X195.295 Y81.258 E205.26442
G1 X195.232 Y81.975 E205.33244
G1 X195.091 Y82.681 E205.40047
G1 X194.872 Y83.366 E205.46843
G1 X194.431 Y84.293 E205.56544
G1 X156.647 Y149.737 E212.70663
G1 X156.555 Y149.897 E212.72407
G1 X156.163 Y150.501 E212.79212
G1 X155.707 Y151.057 E212.86007
G1 X155.192 Y151.559 E212.92803
G1 X154.624 Y152.001 E212.99605
G1 X154.011 Y152.377 E213.064
G1 X153.359 Y152.683 E213.13207
G1 X152.678 Y152.914 E213.20002
G1 X151.976 Y153.069 E213.26796
G1 X150.937 Y153.153 E213.36647
G1 X75.162 Y153.153 E220.5272
G1 X74.444 Y153.113 E220.59516
G1 X73.734 Y152.994 E220.66319
G1 X73.042 Y152.796 E220.73121
G1 X72.377 Y152.523 E220.79914
G1 X71.745 Y152.178 E220.86718
G1 X71.156 Y151.765 E220.93516
G1 X70.617 Y151.289 E221.00312
G1 X70.133 Y150.757 E221.07108
G1 X69.554 Y149.915 E221.16765
G1 X31.771 Y84.471 E228.3088
G1 X31.672 Y84.299 E228.32755
G1 X31.346 Y83.657 E228.39559
G1 X31.094 Y82.983 E228.46359
G1 X30.919 Y82.286 E228.5315
G1 X30.822 Y81.573 E228.5995
G1 X30.804 Y80.854 E228.66747
G1 X30.867 Y80.137 E228.73549
G1 X31.008 Y79.431 E228.80352
G1 X31.227 Y78.746 E228.87148
G1 X31.668 Y77.819 E228.96849
G1 X69.452 Y12.375 E236.10968
G0 F4500 X69.756 Y12.55
G1 F1800 X69.848 Y12.389 E236.1272
G1 X70.23 Y11.802 E236.19339
G1 X70.676 Y11.264 E236.25943
G1 X71.181 Y10.779 E236.32559
G1 X71.738 Y10.356 E236.39169
G1 X72.339 Y9.998 E236.4578
G1 X72.978 Y9.712 E236.52395
G1 X73.645 Y9.5 E236.59009
G1 X74.331 Y9.366 E236.65614
G1 X75.162 Y9.309 E236.73486
G1 X150.937 Y9.309 E243.8956
G1 X151.636 Y9.349 E243.96176
G1 X152.325 Y9.468 E244.02783
G1 X152.996 Y9.666 E244.09395
G1 X153.641 Y9.938 E244.1601
G1 X154.25 Y10.282 E244.22619
G1 X154.816 Y10.694 E244.29235
G1 X155.331 Y11.167 E244.35843
G1 X155.789 Y11.696 E244.42455
G1 X156.241 Y12.372 E244.5014
G1 X194.021 Y77.81 E251.64191
G1 X194.124 Y77.988 E251.66135
G1 X194.44 Y78.613 E251.72753
G1 X194.682 Y79.27 E251.79369
G1 X194.847 Y79.949 E251.85973
G1 X194.934 Y80.644 E251.92592
G1 X194.941 Y81.343 E251.99197
G1 X194.869 Y82.039 E252.0581
G1 X194.717 Y82.722 E252.12422
G1 X194.488 Y83.384 E252.19042
G1 X194.127 Y84.118 E252.26771
G1 X156.343 Y149.562 E259.40891
G1 X156.251 Y149.723 E259.42643
G1 X155.869 Y150.31 E259.49261
G1 X155.423 Y150.848 E259.55865
G1 X154.918 Y151.333 E259.62482
G1 X154.361 Y151.756 E259.69091
G1 X153.76 Y152.114 E259.75702
G1 X153.121 Y152.4 E259.82318
G1 X152.454 Y152.612 E259.88932
G1 X151.768 Y152.746 E259.95537
G1 X150.937 Y152.803 E260.03408
G1 X75.162 Y152.803 E267.19482
G1 X74.463 Y152.763 E267.26098
G1 X73.774 Y152.644 E267.32706
G1 X73.103 Y152.446 E267.39317
G1 X72.458 Y152.174 E267.45932
G1 X71.849 Y151.83 E267.52542
G1 X71.283 Y151.418 E267.59158
G1 X70.768 Y150.945 E267.65766
G1 X70.31 Y150.416 E267.72378
G1 X69.858 Y149.74 E267.80063
G1 X32.075 Y84.296 E274.94177
G1 X31.975 Y84.124 E274.96057
G1 X31.659 Y83.499 E275.02675
G1 X31.417 Y82.842 E275.09292
G1 X31.252 Y82.163 E275.15895
G1 X31.165 Y81.468 E275.22514
G1 X31.158 Y80.769 E275.2912
G1 X31.23 Y80.073 E275.35732
G1 X31.382 Y79.39 E275.42345
G1 X31.611 Y78.728 E275.48964
G1 X31.972 Y77.994 E275.56694
G1 X69.756 Y12.55 E282.70813
G0 F4500 X70.049 Y12.741
G1 F1800 X70.151 Y12.563 E282.72752
G1 X70.523 Y11.994 E282.79176
G1 X70.959 Y11.473 E282.85596
G1 X71.454 Y11.007 E282.92021
G1 X71.999 Y10.602 E282.98437
G1 X72.589 Y10.264 E283.04863
G1 X73.214 Y9.998 E283.11282
G1 X73.865 Y9.806 E283.17696
G1 X74.535 Y9.693 E283.24117
G1 X75.162 Y9.659 E283.3005
G1 X150.937 Y9.659 E290.46124
G1 X151.615 Y9.699 E290.52542
G1 X152.284 Y9.818 E290.58964
G1 X152.934 Y10.015 E290.65382
G1 X153.557 Y10.287 E290.71806
G1 X154.143 Y10.631 E290.78227
G1 X154.685 Y11.041 E290.8465
G1 X155.175 Y11.511 E290.91066
G1 X155.606 Y12.036 E290.97485
G1 X155.938 Y12.547 E291.03244
G1 X193.718 Y77.986 E298.17303
G1 X193.821 Y78.164 E298.19246
G1 X194.127 Y78.771 E298.2567
G1 X194.358 Y79.409 E298.32082
G1 X194.513 Y80.071 E298.38507
G1 X194.59 Y80.746 E298.44928
G1 X194.586 Y81.425 E298.51344
G1 X194.503 Y82.1 E298.57771
G1 X194.341 Y82.759 E298.64184
G1 X194.103 Y83.396 E298.7061
G1 X193.824 Y83.943 E298.76413
G1 X156.049 Y149.371 E305.90358
G1 X156.05 Y149.371 E305.90368
G1 X155.948 Y149.549 E305.92307
G1 X155.576 Y150.118 E305.98731
G1 X155.14 Y150.639 E306.05151
G1 X154.645 Y151.105 E306.11575
G1 X154.1 Y151.51 E306.17992
G1 X153.51 Y151.848 E306.24418
G1 X152.885 Y152.114 E306.30836
G1 X152.234 Y152.306 E306.3725
G1 X151.564 Y152.419 E306.43671
G1 X150.937 Y152.453 E306.49605
G1 X75.162 Y152.453 E313.65679
G1 X74.484 Y152.413 E313.72097
G1 X73.815 Y152.294 E313.78518
G1 X73.165 Y152.097 E313.84937
G1 X72.542 Y151.825 E313.91361
G1 X71.956 Y151.481 E313.97782
G1 X71.414 Y151.071 E314.04204
G1 X70.924 Y150.601 E314.10621
G1 X70.493 Y150.076 E314.1704
G1 X70.161 Y149.565 E314.22798
G1 X32.378 Y84.121 E321.36913
G1 X32.278 Y83.948 E321.38801
G1 X31.972 Y83.341 E321.45225
G1 X31.741 Y82.703 E321.51637
G1 X31.586 Y82.041 E321.58062
G1 X31.509 Y81.366 E321.64482
G1 X31.513 Y80.687 E321.70899
G1 X31.596 Y80.012 E321.77326
G1 X31.758 Y79.353 E321.83739
G1 X31.996 Y78.716 E321.90165
G1 X32.275 Y78.169 E321.95967
G1 X70.05 Y12.741 E329.09913
G1 X70.049 Y12.741 E329.09923
G0 F4500 X70.362 Y12.9
G1 F1800 X70.455 Y12.737 E329.11696
G1 X70.816 Y12.186 E329.17921
G1 X71.242 Y11.684 E329.24143
G1 X71.725 Y11.236 E329.30368
G1 X72.259 Y10.851 E329.36589
G1 X72.836 Y10.533 E329.42815
G1 X73.447 Y10.287 E329.4904
G1 X74.083 Y10.117 E329.55261
G1 X74.735 Y10.026 E329.61482
G1 X75.162 Y10.009 E329.6552
G1 X150.937 Y10.009 E336.81594
G1 X151.594 Y10.049 E336.87814
G1 X152.242 Y10.168 E336.9404
G1 X152.87 Y10.365 E337.0026
G1 X153.47 Y10.637 E337.06485
G1 X154.033 Y10.979 E337.1271
G1 X154.55 Y11.387 E337.18934
G1 X155.013 Y11.854 E337.25149
G1 X155.417 Y12.375 E337.31379
G1 X155.635 Y12.722 E337.35252
G1 X193.415 Y78.161 E344.49311
G1 X193.416 Y78.161 E344.4932
G1 X193.519 Y78.339 E344.51264
G1 X193.813 Y78.928 E344.57485
G1 X194.034 Y79.548 E344.63705
G1 X194.179 Y80.191 E344.69934
G1 X194.244 Y80.846 E344.76154
G1 X194.229 Y81.504 E344.82374
G1 X194.135 Y82.156 E344.88599
G1 X193.963 Y82.791 E344.94816
G1 X193.715 Y83.401 E345.01038
G1 X193.521 Y83.768 E345.04961
G1 X155.737 Y149.212 E352.1908
G1 X155.644 Y149.375 E352.20854
G1 X155.283 Y149.926 E352.27079
G1 X154.857 Y150.428 E352.33301
G1 X154.374 Y150.876 E352.39526
G1 X153.84 Y151.261 E352.45747
G1 X153.263 Y151.579 E352.51973
G1 X152.652 Y151.825 E352.58197
